X:129
M:3/4
L:1/8
K:D
f6 | f2e2d2 | c2e2d2 | c2B2A2 | e4d2 | c2B2A2 | B2e2d2 | c2B2A2 | 
f6 | f2e2d2 | c2e2d2 | c2B2A2 | e4d2 | c2B2A2 | B2c2e2 | d6 || 

